icons/svg/barrier_colored/hampshire_gate.svg

<?xml version="1.0" encoding="UTF-8" standalone="no"?>
<svg
   xmlns:dc="http://purl.org/dc/elements/1.1/"
   xmlns:cc="http://creativecommons.org/ns#"
   xmlns:rdf="http://www.w3.org/1999/02/22-rdf-syntax-ns#"
   xmlns:svg="http://www.w3.org/2000/svg"
   xmlns="http://www.w3.org/2000/svg"
   xmlns:sodipodi="http://sodipodi.sourceforge.net/DTD/sodipodi-0.dtd"
   xmlns:inkscape="http://www.inkscape.org/namespaces/inkscape"
   width="48"
   height="48"
   viewBox="0 0 48 48"
   version="1.1"
   id="svg8"
   sodipodi:docname="hampshire_gate.svg"
   style="fill:none"
   inkscape:version="0.92.5 (2060ec1f9f, 2020-04-08)">
  <metadata
     id="metadata14">
    <rdf:RDF>
      <cc:Work
         rdf:about="">
        <dc:format>image/svg+xml</dc:format>
        <dc:type
           rdf:resource="http://purl.org/dc/dcmitype/StillImage" />
        <dc:title></dc:title>
      </cc:Work>
    </rdf:RDF>
  </metadata>
  <defs
     id="defs12" />
  <sodipodi:namedview
     pagecolor="#ffffff"
     bordercolor="#666666"
     borderopacity="1"
     objecttolerance="10"
     gridtolerance="10"
     guidetolerance="10"
     inkscape:pageopacity="0"
     inkscape:pageshadow="2"
     inkscape:window-width="1920"
     inkscape:window-height="1014"
     id="namedview10"
     showgrid="true"
     inkscape:zoom="9.2070179"
     inkscape:cx="16.052249"
     inkscape:cy="25.37483"
     inkscape:window-x="1920"
     inkscape:window-y="0"
     inkscape:window-maximized="1"
     inkscape:current-layer="svg8">
    <inkscape:grid
       type="xygrid"
       id="grid821"
       spacingx="2"
       spacingy="2" />
  </sodipodi:namedview>
  <path
     inkscape:connector-curvature="0"
     d="M 3.9999999,20 H 30 V 18 H 3.9999999 Z"
     style="clip-rule:evenodd;fill:#ffffff;fill-rule:evenodd;stroke-width:0.06885458;stroke-linejoin:round;stroke-miterlimit:2;fill-opacity:1"
     id="path12"
     sodipodi:nodetypes="ccccc" />
  <path
     inkscape:connector-curvature="0"
     d="M 6.0000049,4 V 44.000001 H 10 V 4 Z"
     style="clip-rule:evenodd;fill:#ffffff;fill-rule:evenodd;stroke-width:0.08659212;stroke-linejoin:round;stroke-miterlimit:2;fill-opacity:1"
     id="path14" />
  <path
     inkscape:connector-curvature="0"
     d="M 16.000005,3.9999991 V 44 H 20 V 3.9999991 Z"
     style="clip-rule:evenodd;fill:#ffffff;fill-rule:evenodd;stroke-width:0.08659212;stroke-linejoin:round;stroke-miterlimit:2;fill-opacity:1"
     id="path14-3" />
  <path
     inkscape:connector-curvature="0"
     d="M 4,32 H 28 V 30 H 4 Z"
     style="clip-rule:evenodd;fill:#ffffff;fill-rule:evenodd;stroke-width:0.06885458;stroke-linejoin:round;stroke-miterlimit:2;fill-opacity:1"
     id="path12-6"
     sodipodi:nodetypes="ccccc" />
  <path
     inkscape:connector-curvature="0"
     d="m 30,4 -4,40.000001 h 3.999995 L 33.999995,4 Z"
     style="clip-rule:evenodd;fill:#ffffff;fill-rule:evenodd;stroke-width:0.08659212;stroke-linejoin:round;stroke-miterlimit:2;fill-opacity:1"
     id="path14-7"
     sodipodi:nodetypes="ccccc" />
  <path
     inkscape:connector-curvature="0"
     d="M 26,12 H 44 V 10 H 26 Z"
     style="clip-rule:evenodd;fill:#ffffff;fill-rule:evenodd;stroke-width:0.06885458;stroke-linejoin:round;stroke-miterlimit:2;fill-opacity:1"
     id="path12-5"
     sodipodi:nodetypes="ccccc" />
  <path
     inkscape:connector-curvature="0"
     d="m 38,4 v 40.000001 h 3.999995 V 4 Z"
     style="clip-rule:evenodd;fill:#ffffff;fill-rule:evenodd;stroke-width:0.08659212;stroke-linejoin:round;stroke-miterlimit:2;fill-opacity:1"
     id="path14-3-3" />
  <path
     inkscape:connector-curvature="0"
     d="M 24,40 H 44 V 38 H 24 Z"
     style="clip-rule:evenodd;fill:#ffffff;fill-rule:evenodd;stroke-width:0.06885456;stroke-linejoin:round;stroke-miterlimit:2;fill-opacity:1"
     id="path12-5-6"
     sodipodi:nodetypes="ccccc" />
</svg>

<svg width="48" height="48" fill="none" version="1.1" viewBox="0 0 48 48" xmlns="http://www.w3.org/2000/svg">
 <g clip-rule="evenodd" fill="#ffffff" fill-rule="evenodd" stroke-linejoin="round" stroke-miterlimit="2">
  <path d="m4 20h26v-2h-26z" stroke-width=".068855"/>
  <path d="m6 4v40h4v-40z" stroke-width=".086592"/>
  <path d="m16 4v40h4v-40z" stroke-width=".086592"/>
  <path d="m4 32h24v-2h-24z" stroke-width=".068855"/>
  <path d="m30 4-4 40h4l4-40z" stroke-width=".086592"/>
  <path d="m26 12h18v-2h-18z" stroke-width=".068855"/>
  <path d="m38 4v40h4v-40z" stroke-width=".086592"/>
  <path d="m24 40h20v-2h-20z" stroke-width=".068855"/>
 </g>
</svg>
